X: 022125
T: Bencroy
C: Joe Liddy
Z: BB
S: "The Leitrim Fiddler" (Dublin 1981)
L: 1/8
M: 4/4
R: reel
Q: 1/4 = 180
K: Ador
gf | eA A2 edBd | eA A2 GEDE | G3A BABd | eBdB GABd |
eA A2 edBd | eA A2 GEDE | G2 GA BABd | eBdB A2 :|
Bd | ea a2 bgag | egde gedB | A2 Bd eABd | eg (3agf gedg |
ea a2 bgab | gedB GABd | eA A2 GEDE | GABG A2 Bd |
ea a2 bgag | egde gedB | A2 Bd eABd | eg (3agf gedg |
eage agab | gedB GABd | eA A2 GEDE | GABG A4 ||
